X: 28086
T: Mr. Abel Bank's
R: strathspey
M: 4/4
K: Cmajor
E<E c>A (3AGED2|E<E c>A G>c E>c|(3ABc G>A (3AGE D>E|C<C c>d e>c G<c:|
e<g g>a (3age d>e|e<g g<a e<g g<c'|e<g g>a (3age d>e|c>d c/d/e/d/ c>E G<c|
e<g g>a (3age d>e|e<g g<a (3age (3edc|(3cBA (3GFE (3cGE E>D|C<C c>d e>c G<c||

